svgs/thin/golf-club.svg

<svg xmlns="http://www.w3.org/2000/svg" viewBox="0 0 512 512"><!--! Font Awesome Pro 6.0.0-alpha3 by @fontawesome - https://fontawesome.com License - https://fontawesome.com/license (Commercial License) --><path d="M499.3 10.42l-14.11-7.566C481.6 .9186 477.7 0 473.9 0c-8.564 0-16.85 4.594-21.18 12.67l-193.8 385L41.19 332.4c-3.105-.9297-6.215-1.371-9.254-1.371c-17.06 0-31.94 13.82-31.94 32.02v116.1c0 17.67 14.33 31.1 32 31.1h222.3c12.11 0 23.18-6.836 28.61-17.66l226.3-451.4C515.4 31.22 511 16.68 499.3 10.42zM494.8 35.73L268.6 487.2C265.8 492.6 260.4 496 254.3 496H32c-8.822 0-16-7.18-16-16v-24h48c4.422 0 8-3.594 8-8s-3.578-8-8-8H16v-32h48c4.422 0 8-3.594 8-8s-3.578-8-8-8H16v-28.99c0-4.34 1.693-8.391 4.768-11.4c2.998-2.934 7.07-4.617 11.17-4.617c1.551 0 3.119 .2344 4.658 .6953l230.6 69.18l199.6-396.6C468.5 17.11 471.6 16 473.9 16c1.312 0 2.576 .3203 3.756 .9531l14.11 7.566C495.7 26.6 497.1 31.46 494.8 35.73z"/></svg>

<svg xmlns="http://www.w3.org/2000/svg" viewBox="0 0 512 512"><!-- Font Awesome Pro 6.0.0-alpha2 by @fontawesome - https://fontawesome.com License - https://fontawesome.com/license (Commercial License) --><path d="M499.338 10.418L485.232 2.852C481.625 0.918 477.74 0 473.914 0C465.35 0 457.062 4.594 452.734 12.672L258.947 397.684L41.193 332.359C38.088 331.43 34.979 330.988 31.939 330.988C14.883 330.988 0 344.812 0 363.008V480C0 497.672 14.326 512 32 512H254.264C266.373 512 277.445 505.164 282.871 494.336L509.15 42.902C515.408 31.223 511.016 16.68 499.338 10.418ZM494.848 35.734L268.566 487.168C265.836 492.617 260.355 496 254.264 496H32C23.178 496 16 488.82 16 480V456H64C68.422 456 72 452.406 72 448S68.422 440 64 440H16V408H64C68.422 408 72 404.406 72 400S68.422 392 64 392H16V363.008C16 358.668 17.693 354.617 20.768 351.605C23.766 348.672 27.838 346.988 31.937 346.988C33.488 346.988 35.057 347.223 36.596 347.684L254.35 413.008L267.205 416.867L273.238 404.879L466.838 20.227C468.508 17.109 471.588 16 473.914 16C475.227 16 476.49 16.32 477.67 16.953L491.777 24.52C495.662 26.602 497.129 31.461 494.848 35.734Z"/></svg>
